static/images/clients/hailie.svg

<svg height="96" viewBox="0 0 300 96" width="300" xmlns="http://www.w3.org/2000/svg"><g fill="none"><path d="m0 0h300l-60 96h-240z" fill="#ff715a"/><path d="m21.666 30.0975c0-6.159-3.2805-7.4985-6.5595-7.4985-3.2805 0-6.561 1.272-6.561 7.365v17.136h-8.235v-46.776h8.235v17.3205c1.8075-1.338 4.017-2.9445 8.367-2.9445 6.963 0 12.9885 4.083 12.9885 14.058v18.3435h-8.235zm28.668-7.4985c-4.821 0-8.7705 4.017-8.7705 8.703 0 4.7535 3.9495 8.7705 8.7705 8.7705 4.887 0 8.835-4.017 8.835-8.7705 0-4.686-3.948-8.703-8.835-8.703zm8.835 22.4265c-2.5425 2.076-5.556 2.946-8.835 2.946-9.3735 0-16.8705-7.497-16.8705-16.6695 0-9.2385 7.497-16.602 16.8705-16.602 3.213 0 6.225.87 8.835 2.9445v-2.343h8.235v31.8h-8.235zm11.916-39.5655c0-2.9445 2.274-5.1525 5.22-5.1525s5.1555 2.208 5.1555 5.154-2.2095 5.2215-5.1555 5.2215-5.22-2.2755-5.22-5.2215zm1.0695 41.64h8.235v-31.797h-8.235zm21.2205-11.145v-35.64h-8.235v37.515c0 6.0255 3.348 9.372 9.441 9.372.507 0 1.0035-.0375 1.476-.1005v-7.71c-2.19-.237-2.682-1.5105-2.682-3.435zm35.3295-13.758c-3.816 0-6.8955 2.277-8.1 5.691h15.8655c-.468-3.213-3.816-5.691-7.7655-5.691zm.468 18.3435c2.88 0 5.958-1.071 7.833-3.5475l5.625 4.485c-2.88 4.083-7.968 6.495-13.3905 6.495-9.573 0-16.938-7.164-16.938-16.47 0-9.0375 6.36-16.803 16.47-16.803 9.372 0 16.0005 7.632 16.0005 16.602 0 .87-.0675 1.8075-.2025 2.61h-24.234c.9375 3.885 4.0845 6.6285 8.8365 6.6285zm-29.739-35.0805c0-2.9445 2.2755-5.1525 5.22-5.1525 2.9475 0 5.157 2.208 5.157 5.154s-2.2095 5.2215-5.1555 5.2215-5.2215-2.2755-5.2215-5.2215zm1.071 41.64h8.235v-31.797h-8.235z" fill="#fcf8f5" transform="translate(24 24)"/></g></svg>

<?xml version="1.0" encoding="UTF-8"?>
<svg width="300px" height="96px" viewBox="0 0 300 96" version="1.1" xmlns="http://www.w3.org/2000/svg" xmlns:xlink="http://www.w3.org/1999/xlink">
    <!-- Generator: Sketch 57.1 (83088) - https://sketch.com -->
    <title>hailie-logo-new</title>
    <desc>Created with Sketch.</desc>
    <g id="Adherium" stroke="none" stroke-width="1" fill="none" fill-rule="evenodd">
        <g id="adherium-case-study-copy" transform="translate(-145.000000, -374.000000)" fill-rule="nonzero">
            <g id="Group-3" transform="translate(145.000000, 348.000000)">
                <g id="hailie-logo-new" transform="translate(0.000000, 26.000000)">
                    <polygon id="Path" fill="#FF715A" points="0 0 300 0 240 96 0 96"></polygon>
                    <g id="Group" transform="translate(24.000000, 24.000000)" fill="#FCF8F5">
                        <path d="M21.666,30.0975 C21.666,23.9385 18.3855,22.599 15.1065,22.599 C11.826,22.599 8.5455,23.871 8.5455,29.964 L8.5455,47.1 L0.3105,47.1 L0.3105,0.324 L8.5455,0.324 L8.5455,17.6445 C10.353,16.3065 12.5625,14.7 16.9125,14.7 C23.8755,14.7 29.901,18.783 29.901,28.758 L29.901,47.1015 L21.666,47.1015 L21.666,30.0975 L21.666,30.0975 Z M50.334,22.599 C45.513,22.599 41.5635,26.616 41.5635,31.302 C41.5635,36.0555 45.513,40.0725 50.334,40.0725 C55.221,40.0725 59.169,36.0555 59.169,31.302 C59.169,26.616 55.221,22.599 50.334,22.599 L50.334,22.599 Z M59.169,45.0255 C56.6265,47.1015 53.613,47.9715 50.334,47.9715 C40.9605,47.9715 33.4635,40.4745 33.4635,31.302 C33.4635,22.0635 40.9605,14.7 50.334,14.7 C53.547,14.7 56.559,15.57 59.169,17.6445 L59.169,15.3015 L67.404,15.3015 L67.404,47.1015 L59.169,47.1015 L59.169,45.0255 Z M71.085,5.46 C71.085,2.5155 73.359,0.3075 76.305,0.3075 C79.251,0.3075 81.4605,2.5155 81.4605,5.4615 C81.4605,8.4075 79.251,10.683 76.305,10.683 C73.359,10.683 71.085,8.4075 71.085,5.4615 L71.085,5.46 Z M72.1545,47.1 L80.3895,47.1 L80.3895,15.303 L72.1545,15.303 L72.1545,47.1 Z M93.375,35.955 L93.375,0.315 L85.14,0.315 L85.14,37.83 C85.14,43.8555 88.488,47.202 94.581,47.202 C95.088,47.202 95.5845,47.1645 96.057,47.1015 L96.057,39.3915 C93.867,39.1545 93.375,37.881 93.375,35.9565 L93.375,35.955 Z M128.7045,22.197 C124.8885,22.197 121.809,24.474 120.6045,27.888 L136.47,27.888 C136.002,24.675 132.654,22.197 128.7045,22.197 L128.7045,22.197 Z M129.1725,40.5405 C132.0525,40.5405 135.1305,39.4695 137.0055,36.993 L142.6305,41.478 C139.7505,45.561 134.6625,47.973 129.24,47.973 C119.667,47.973 112.302,40.809 112.302,31.503 C112.302,22.4655 118.662,14.7 128.772,14.7 C138.144,14.7 144.7725,22.332 144.7725,31.302 C144.7725,32.172 144.705,33.1095 144.57,33.912 L120.336,33.912 C121.2735,37.797 124.4205,40.5405 129.1725,40.5405 L129.1725,40.5405 Z M99.4335,5.46 C99.4335,2.5155 101.709,0.3075 104.6535,0.3075 C107.601,0.3075 109.8105,2.5155 109.8105,5.4615 C109.8105,8.4075 107.601,10.683 104.655,10.683 C101.709,10.683 99.4335,8.4075 99.4335,5.4615 L99.4335,5.46 Z M100.5045,47.1 L108.7395,47.1 L108.7395,15.303 L100.5045,15.303 L100.5045,47.1 Z" id="Shape"></path>
                    </g>
                </g>
            </g>
        </g>
    </g>
</svg>
